X:2304
T:Tappaghyn Jiargey 
T:Red top-knots
C:Traditional
O:Isle of Man
B:Kiaull Vannin #304 
N:See KV #408
M:3/4 
L:1/8 
Q:160 
K:G 
BA|G2 E2 E2|E4 BA|G2 E2 E2|G4 AB|c2 c2 dc|BA GF E^D|E2 e2 e2|^d4 B=d|
d>c B/c/d e>d|d2 B2 d2|d>c B/c/d e>d|d2 B2 B2|B>e e2 dB|GB dB GF|E2 e2 ^d2|e4|| 

